icons/rss.svg

<svg width="16" height="15" xmlns="http://www.w3.org/2000/svg" version="1.1"><path fill="#000000" d="M3,1h3v1h-3v1h-1v7h1v1h2v1h-2v-1h-1v-1h-1v-7h1v-1h1v-1M10,1h3v1h1v1h1v7h-1v1h-1v1h-2v-1h2v-1h1v-7h-1v-1h-3v-1M4,3h1v1h-1v5h1v1h-1v-1h-1v-5h1v-1M11,3h1v1h1v5h-1v1h-1v-1h1v-5h-1v-1M6,5h4v1h1v1h-1v1h-1v5h2v1h-6v-1h2v-5h-1v-1h-1v-1h1z"/></svg>

<svg width="16" height="15" xmlns="http://www.w3.org/2000/svg"><path d="M3 1h3v1H3v1H2v7h1v1h2v1H3v-1H2v-1H1V3h1V2h1V1m7 0h3v1h1v1h1v7h-1v1h-1v1h-2v-1h2v-1h1V3h-1V2h-3V1M4 3h1v1H4v5h1v1H4V9H3V4h1V3m7 0h1v1h1v5h-1v1h-1V9h1V4h-1V3M6 5h4v1h1v1h-1v1H9v5h2v1H5v-1h2V8H6V7H5V6h1z"/></svg>
